icons/14x14_ticket_add_outline.svg

<svg xmlns="http://www.w3.org/2000/svg" width="14" height="14" viewBox="0 0 14 14">
  <path fill-rule="evenodd" d="M6,10.6584439 L6,12.9987182 C5.68221462,12.9839677 5.36782449,12.8546955 5.12413605,12.6110071 L1.38913605,8.87600708 C0.873136046,8.36000708 0.870136046,7.52700708 1.38113605,7.01600708 L7.10513605,1.29300708 C7.29313605,1.10400708 7.55013605,0.999007078 7.81613605,1.00000708 L11.987136,1.01800708 C12.536136,1.02000708 12.980136,1.46400708 12.983136,2.01300708 L12.9993861,6 L10.9984614,6 L10.9871981,3.01371038 L8.22473007,3.00178872 L3.28360582,7.94204973 L6,10.6584439 Z M12,10 L14,10 L14,12 L12,12 L12,14 L10,14 L10,12 L8,12 L8,10 L10,10 L10,8 L12,8 L12,10 Z"/>
</svg>

<svg width="14" height="14" fill="none" xmlns="http://www.w3.org/2000/svg"><path fill-rule="evenodd" clip-rule="evenodd" d="M6 10.658v2.34a1.322 1.322 0 0 1-.876-.387L1.39 8.876a1.315 1.315 0 0 1-.008-1.86l5.724-5.723A.998.998 0 0 1 7.816 1l4.171.018a1 1 0 0 1 .996.995L13 6h-2l-.012-2.986-2.762-.012-4.941 4.94L6 10.658ZM12 10h2v2h-2v2h-2v-2H8v-2h2V8h2v2Z" fill="#000"/></svg>
